X:1
T:Flow, my tears
T:Flow, my tears
T:John Dowland
C:John Dowland
L:1/8
M:4/4
K:C
V:1 treble 
V:1
 A3 (G/F/) E2 (c2 | c2) BA ^G4 | A2 E3 E GG | F2 D2 E3 B | c2 A2 B2 ^G2 | Ac>BA ^G2 c2 | %6
 BA A4 (^G/^F/ G2) | A8 :: c3 B AG (c2 | c)(B/A/) B2 c2 G2 | z A2 ^G AF E2 | z D F2 z F A2 | %12
 z A c2 z G B>c | d2 z D F>G A2 | z c2 B c>B (A/^G) A2 | ^G8 :: ^G3 A B2 c2 | BA A4 ^G2 | %18
 A3 c Bc A2 | ^G4 z4 | z2 | e3 B (d2 | d)A c2 B2 A2 | ^G2 c2 BA (A2 |[M:2/4] A)(^G/^F/) G2 | %25
[M:4/4] A8 :| %26

